!!!OTL: S IST ALLES DUNKEL
!!!ARE: Europa, Mitteleuropa, Deutschland, Hessen, Frankfurt; Oberhessen
!!!SCT: E0698
!!!YEM: Copyright 1995, estate of Helmut Schaffrath.
**kern
*ICvox
*Ivox
*M3/4
*k[f#]
*G:
{8d
8d
8c
=1
8B
8d
8g
8b
8b
8b
=2
8b
8dd
8dd}
{8dd
8cc
8b
=3
4a
4cc
8b
8a
=4
4g
8r}
{8g
8f#
8g
=5
4.a
8a
8g
8e
=6
4d
8r}
{8f#
8f#
8g
=7
4.a
8a
8g
8e
=8
4d
8r}
{8d
8d
8d
=9
8B
8d
8g
8b
8b
8b
=10
4b
8dd}
{8dd
8cc
8b
=11
4a
8cc
8cc
8b
8a
=12
4g
8r}
{8d
8d
8d
=13
8B
8d
8g
8b
8b
8b
=14
4b
8dd}
{8dd
8cc
8b
=15
4a
8cc
8cc
8b
8a
=16
4g
8r}
==
!!!AGN: Liebes - Lied, Leid, Klage
!!!ONB: ESAC (Essen Associative Code) Database: ERK2
!!!AMT: simple triple
!!!AIN: vox
!!!EED: Helmut Schaffrath
!!!EEV: 1.0
*-
